brandFactory_export/2.Regular/Tormenta _2Regular.svg

<?xml version="1.0" encoding="UTF-8"?>
<svg width="24px" height="24px" viewBox="0 0 24 24" version="1.1" xmlns="http://www.w3.org/2000/svg" xmlns:xlink="http://www.w3.org/1999/xlink">
    <title>2.Regular/Tormenta _2Regular</title>
    <g id="Symbols" stroke="none" stroke-width="1" fill="none" fill-rule="evenodd">
        <g id="2.Regular/Tormenta-_2Regular" fill="#5CB615" fill-rule="nonzero">
            <path d="M17.297479,15.6369748 L16.6319328,15.6403361 L16.6655462,15.6033613 C16.8470588,15.4117647 16.9142857,15.1361345 16.8369748,14.8840336 C16.7630252,14.6319328 16.5579832,14.4369748 16.302521,14.3798319 L12.9042017,13.610084 L14.9310924,8.32605042 C15.0554622,7.99663866 14.9344538,7.62689076 14.6386555,7.43865546 C14.3462185,7.25378151 13.9596639,7.30420168 13.7243697,7.55966387 L6.59495798,15.3142857 C6.49411765,15.4218487 6.44369748,15.5529412 6.42016807,15.6941176 L5.21008403,15.697479 C4.08067227,15.697479 1.45210084,15.3277311 1.45210084,11.9159664 C1.45210084,9.99663866 2.26554622,8.78991597 3.86890756,8.32941176 C4.18151261,8.23865546 4.39663866,7.95294118 4.39663866,7.62352941 L4.38991597,7.48907563 C4.38991597,1.89579832 9.22689076,1.45882353 10.7092437,1.45882353 C11.5495798,1.45882353 15.7915966,1.65042017 16.7966387,5.43193277 C16.8806723,5.74453782 17.1563025,5.96638655 17.4756303,5.97647059 C18.8907563,6.01680672 22.1747899,6.56470588 22.1747899,10.789916 C22.1747899,15.287395 18.4470588,15.6369748 17.297479,15.6369748 M11.6571429,16.3529412 C11.5563025,16.1680672 11.3815126,16.0336134 11.1764706,15.9865546 L8.51428571,15.3815126 L12.2117647,11.3613445 L11.2470588,13.8756303 C11.1697479,14.0739496 11.1831933,14.2991597 11.2840336,14.487395 C11.3848739,14.6756303 11.5596639,14.810084 11.7647059,14.8571429 L14.7294118,15.5260504 L10.6319328,19.8218487 L11.697479,16.9579832 C11.7714286,16.7596639 11.7579832,16.5411765 11.6571429,16.3529412 M18.0369748,4.5512605 C16.5411765,0.228571429 11.6941176,0 10.7058824,0 C9.43193277,0 3.17647059,0.349579832 2.94453782,7.10588235 C1.6605042,7.62352941 0,8.88067227 0,11.9226891 C0,15.7915966 2.69243697,17.1697479 5.21344538,17.1697479 L9.63361345,17.1495798 C9.64369748,17.1495798 9.65042017,17.1462185 9.66386555,17.1428571 L10.0504202,17.2302521 L8.04033613,22.6285714 C7.91932773,22.9546218 8.04033613,23.3210084 8.33277311,23.5058824 C8.45042017,23.5831933 8.58487395,23.6201681 8.71932773,23.6201681 C8.91092437,23.6201681 9.10252101,23.5428571 9.24033613,23.394958 L15.2302521,17.1092437 L17.3042017,17.0991597 C20.2218487,17.0991597 23.6235294,15.4487395 23.6235294,10.7932773 C23.6235294,6.56134454 20.8302521,4.81344538 18.0369748,4.5512605" id="Tormenta-_2Regular"></path>
        </g>
    </g>
</svg>

<svg width="24" height="24" viewBox="0 0 24 24" xmlns="http://www.w3.org/2000/svg"><path d="M17.297 15.637l-.665.003.034-.037a.736.736 0 00-.363-1.223l-3.399-.77 2.027-5.284a.74.74 0 00-.292-.887.722.722 0 00-.915.12l-7.129 7.755a.707.707 0 00-.175.38l-1.21.003c-1.13 0-3.758-.37-3.758-3.781 0-1.92.814-3.126 2.417-3.587a.732.732 0 00.528-.705l-.007-.135c0-5.593 4.837-6.03 6.32-6.03.84 0 5.082.191 6.087 3.973a.73.73 0 00.679.544c1.415.04 4.699.589 4.699 4.814 0 4.497-3.728 4.847-4.878 4.847m-5.64.716a.737.737 0 00-.48-.366l-2.663-.605 3.698-4.02-.965 2.514a.735.735 0 00.518.981l2.964.67-4.097 4.295 1.065-2.864a.733.733 0 00-.04-.605m6.38-11.802C16.541.23 11.694 0 10.706 0c-1.274 0-7.53.35-7.761 7.106C1.66 7.624 0 8.88 0 11.923c0 3.869 2.692 5.247 5.213 5.247l4.42-.02c.01 0 .017-.004.03-.007l.387.087-2.01 5.399a.734.734 0 00.68.991.713.713 0 00.52-.225l5.99-6.286 2.074-.01c2.918 0 6.32-1.65 6.32-6.306 0-4.232-2.794-5.98-5.587-6.242" fill="#5CB615" fill-rule="nonzero"/></svg>
